X: 882
T: Mrs. Delaney
C: anon.
O: Ireland
B: Francis O'Neill: "The Dance Music of Ireland" (1907) no. 798
R: Reel
Z: Transcribed by Frank Nordberg - http://www.musicaviva.com
F: http://www.musicaviva.com/abc/tunes/ireland/oneill-1001/oneill-1001-079
8.abc
M: C|
L: 1/8
K: Ddor
c(AGF) G2(AF)|DGBG dGB(d|cAG)F G2 (3efg|\
fdc(A df)ed|c(AGF) G2(AF)|DGBd c2(BA)|FGAB c(d (3efg)|f(dcA)d2||
(cA)|G(ggf g2(ag)|f)d (3def (fd)cA|G(ggf) g2 (3efg|\
fdc(A BG)AF|G(ggf) g2(fg)|aba(f g2)fg|(3agf (3gfe (3fed (fd)|cAGA f2(ed)|
]
W:
W:
W: From Musica Viva - http://www.musicaviva.com
W: the Internet center for free sheet music downloads.


